austria/municipalities/70350.svg

<?xml version="1.0" encoding="UTF-8"?>
<!DOCTYPE svg PUBLIC "-//W3C//DTD SVG 1.1//EN" "http://www.w3.org/Graphics/SVG/1.1/DTD/svg11.dtd">
<svg xmlns="http://www.w3.org/2000/svg" version="1.1" width="166px" height="192px" style="shape-rendering:geometricPrecision; text-rendering:geometricPrecision; image-rendering:optimizeQuality; fill-rule:evenodd; clip-rule:evenodd" xmlns:xlink="http://www.w3.org/1999/xlink">
<g><path style="opacity:1" fill="#030303" d="M -0.5,-0.5 C 54.8333,-0.5 110.167,-0.5 165.5,-0.5C 165.5,39.1667 165.5,78.8333 165.5,118.5C 157.367,159.633 132.7,183.966 91.5,191.5C 84.8333,191.5 78.1667,191.5 71.5,191.5C 30.4766,182.81 6.47657,157.81 -0.5,116.5C -0.5,77.5 -0.5,38.5 -0.5,-0.5 Z"/></g>
<g><path style="opacity:1" fill="#185b2a" d="M 26.5,57.5 C 33.3152,75.1214 40.6485,92.4548 48.5,109.5C 59.3743,135.26 70.3743,161.093 81.5,187C 49.2966,185.98 25.7966,171.147 11,142.5C 7.23912,134.217 4.90579,125.551 4,116.5C 3.33333,79.8333 3.33333,43.1667 4,6.5C 11.038,23.8091 18.538,40.8091 26.5,57.5 Z"/></g>
<g><path style="opacity:1" fill="#185b2a" d="M 160.5,6.5 C 161.664,43.6644 161.831,80.9977 161,118.5C 154.044,157.789 130.878,180.622 91.5,187C 88.8333,187.667 86.1667,187.667 83.5,187C 109.59,126.99 135.256,66.8234 160.5,6.5 Z"/></g>
<g><path style="opacity:1" fill="#fdfdfd" d="M 27.5,25.5 C 34.8333,25.5 42.1667,25.5 49.5,25.5C 49.5,53.1667 49.5,80.8333 49.5,108.5C 42.384,92.2565 35.2173,75.9231 28,59.5C 27.5001,48.1716 27.3335,36.8382 27.5,25.5 Z"/></g>
<g><path style="opacity:1" fill="#fefefe" d="M 71.5,25.5 C 78.8333,25.5 86.1667,25.5 93.5,25.5C 93.6667,71.1679 93.5,116.835 93,162.5C 89.9766,170.412 86.4766,178.079 82.5,185.5C 78.7299,177.626 75.2299,169.626 72,161.5C 71.5,116.168 71.3333,70.8346 71.5,25.5 Z"/></g>
<g><path style="opacity:1" fill="#fbfbfb" d="M 115.5,25.5 C 123.167,25.5 130.833,25.5 138.5,25.5C 138.667,36.1719 138.5,46.8385 138,57.5C 130.472,74.4177 123.139,91.4177 116,108.5C 115.5,80.8353 115.333,53.1687 115.5,25.5 Z"/></g>
<g><path style="opacity:1" fill="#212620" d="M 27.5,25.5 C 27.3335,36.8382 27.5001,48.1716 28,59.5C 35.2173,75.9231 42.384,92.2565 49.5,108.5C 49.5,109.167 49.1667,109.5 48.5,109.5C 40.6485,92.4548 33.3152,75.1214 26.5,57.5C 26.1722,46.6536 26.5056,35.9869 27.5,25.5 Z"/></g>
<g><path style="opacity:1" fill="#fdfdfd" d="M -0.5,116.5 C 6.47657,157.81 30.4766,182.81 71.5,191.5C 47.5,191.5 23.5,191.5 -0.5,191.5C -0.5,166.5 -0.5,141.5 -0.5,116.5 Z"/></g>
<g><path style="opacity:1" fill="#fdfcfc" d="M 165.5,118.5 C 165.5,142.833 165.5,167.167 165.5,191.5C 140.833,191.5 116.167,191.5 91.5,191.5C 132.7,183.966 157.367,159.633 165.5,118.5 Z"/></g>
</svg>

<svg xmlns="http://www.w3.org/2000/svg" width="166" height="192" style="shape-rendering:geometricPrecision;text-rendering:geometricPrecision;image-rendering:optimizeQuality;fill-rule:evenodd;clip-rule:evenodd"><path style="opacity:1" fill="#030303" d="M-.5-.5h166v119c-8.133 41.133-32.8 65.466-74 73h-20c-41.023-8.69-65.023-33.69-72-75V-.5z"/><path style="opacity:1" fill="#185b2a" d="M26.5 57.5a901.617 901.617 0 0 0 22 52 13614.79 13614.79 0 0 0 33 77.5c-32.203-1.02-55.703-15.853-70.5-44.5a82.293 82.293 0 0 1-7-26 3025.235 3025.235 0 0 1 0-110 946.163 946.163 0 0 0 22.5 51zM160.5 6.5a2094.75 2094.75 0 0 1 .5 112c-6.956 39.289-30.122 62.122-69.5 68.5a16.242 16.242 0 0 1-8 0 14245.042 14245.042 0 0 0 77-180.5z"/><path style="opacity:1" fill="#fdfdfd" d="M27.5 25.5h22v83a46330.212 46330.212 0 0 0-21.5-49 578.419 578.419 0 0 1-.5-34z"/><path style="opacity:1" fill="#fefefe" d="M71.5 25.5h22c.167 45.668 0 91.335-.5 137a199.153 199.153 0 0 1-10.5 23 383.975 383.975 0 0 1-10.5-24c-.5-45.332-.667-90.665-.5-136z"/><path style="opacity:1" fill="#fbfbfb" d="M115.5 25.5h23c.167 10.672 0 21.339-.5 32a2434.691 2434.691 0 0 0-22 51c-.5-27.665-.667-55.331-.5-83z"/><path style="opacity:1" fill="#212620" d="M27.5 25.5c-.166 11.338 0 22.672.5 34a46330.212 46330.212 0 0 1 21.5 49c0 .667-.333 1-1 1a901.617 901.617 0 0 1-22-52c-.328-10.846.006-21.513 1-32z"/><path style="opacity:1" fill="#fdfdfd" d="M-.5 116.5c6.977 41.31 30.977 66.31 72 75h-72v-75z"/><path style="opacity:1" fill="#fdfcfc" d="M165.5 118.5v73h-74c41.2-7.534 65.867-31.867 74-73z"/></svg>
